public/icons/logo-white.svg

<svg width="152" height="50" viewBox="0 0 152 50" fill="none" xmlns="http://www.w3.org/2000/svg">
<g clip-path="url(#clip0_623_3122)">
<path fill-rule="evenodd" clip-rule="evenodd" d="M87.3895 34.0054C91.82 34.0054 95.4134 37.5652 95.4134 41.9598C95.4134 46.3524 91.82 49.9121 87.3895 49.9121C82.9586 49.9121 79.3652 46.3524 79.3652 41.9598C79.3652 37.5652 82.9586 34.0054 87.3895 34.0054Z" fill="white"/>
<path fill-rule="evenodd" clip-rule="evenodd" d="M106.262 34.0054C110.693 34.0054 114.286 37.5652 114.286 41.9598C114.286 46.3524 110.693 49.9121 106.262 49.9121C101.831 49.9121 98.2383 46.3524 98.2383 41.9598C98.2383 37.5652 101.831 34.0054 106.262 34.0054Z" fill="white"/>
<path fill-rule="evenodd" clip-rule="evenodd" d="M125.134 34.0273C129.568 34.0273 133.159 37.5888 133.159 41.9807C133.159 46.3723 129.568 49.9341 125.134 49.9341C120.703 49.9341 117.111 46.3723 117.111 41.9807C117.111 37.5888 120.703 34.0273 125.134 34.0273Z" fill="white"/>
<path fill-rule="evenodd" clip-rule="evenodd" d="M144.011 34.0054C148.441 34.0054 152.034 37.5652 152.034 41.9598C152.034 46.3524 148.441 49.9121 144.011 49.9121C139.579 49.9121 135.986 46.3524 135.986 41.9598C135.986 37.5652 139.579 34.0054 144.011 34.0054Z" fill="white"/>
<path d="M89.1998 38.7478H85.5752V45.4555C85.5752 45.9627 85.2593 46.2151 84.6327 46.2151C84.0035 46.2151 83.6899 45.9627 83.6855 45.4535V38.0592C83.6855 37.5476 84.0015 37.293 84.6387 37.293H90.144C90.7796 37.293 91.0952 37.5476 91.0912 38.0592V45.4535C91.0865 45.9627 90.7709 46.2151 90.144 46.2151C89.5148 46.2151 89.1992 45.9627 89.1992 45.4555V38.7478H89.1998Z" fill="#221F20"/>
<path d="M106.236 39.2314H106.21L104.98 42.6104H107.486L106.236 39.2314ZM103.022 46.2675C102.438 46.2675 102.148 46.0581 102.148 45.6418C102.148 45.5231 102.183 45.3612 102.255 45.1583L105.041 38.1373C105.157 37.8332 105.305 37.5958 105.494 37.4295C105.683 37.2636 105.949 37.1792 106.291 37.1792C106.634 37.1792 106.911 37.2699 107.12 37.449C107.331 37.6261 107.482 37.8481 107.573 38.1136L110.379 45.1712C110.42 45.281 110.441 45.4021 110.441 45.5294C110.441 45.7754 110.341 45.9611 110.143 46.0818C109.945 46.2045 109.71 46.2675 109.443 46.2675C108.975 46.2675 108.689 46.0993 108.589 45.7626L107.9 43.8961H104.554L103.887 45.7302C103.751 46.0884 103.461 46.2675 103.022 46.2675Z" fill="#221F20"/>
<path d="M122.268 38.3563C122.268 37.8385 122.627 37.5796 123.346 37.5796H125.845C126.829 37.5796 127.573 37.819 128.076 38.2999C128.583 38.7835 128.84 39.4223 128.84 40.2182C128.84 41.5151 128.25 42.3782 127.074 42.8076C126.689 42.9458 126.254 43.0125 125.758 43.0082H124.16V45.7441C124.16 46.2467 123.844 46.499 123.215 46.499C122.588 46.499 122.272 46.2467 122.268 45.7398V38.3563H122.268ZM127.014 40.3069C127.014 39.4398 126.546 39.0015 125.614 38.9929H124.16V41.6447H125.577C126.019 41.6447 126.372 41.5345 126.631 41.3145C126.885 41.0945 127.014 40.7581 127.014 40.3069Z" fill="#221F20"/>
<path d="M140.652 38.2564C140.657 37.7471 140.972 37.4925 141.601 37.4925C142.228 37.4925 142.544 37.7927 142.544 38.388V41.674H142.563L145.583 38.2218C146.005 37.7343 146.436 37.4922 146.88 37.4922C147.174 37.4922 147.385 37.5506 147.513 37.6673C147.64 37.7841 147.703 37.9239 147.703 38.0902C147.703 38.2544 147.631 38.4183 147.485 38.5753L144.464 41.8165L147.677 45.2965C147.866 45.5079 147.96 45.7084 147.96 45.8984C147.96 46.0904 147.888 46.2457 147.738 46.3645C147.59 46.4812 147.357 46.5416 147.039 46.5416C146.719 46.5416 146.44 46.4466 146.201 46.2612C145.959 46.0732 145.711 45.8255 145.45 45.5148L142.564 42.209H142.544V45.7823C142.544 46.287 142.228 46.5416 141.602 46.5416C140.973 46.5416 140.657 46.2398 140.653 45.6375L140.652 38.2564Z" fill="#221F20"/>
<path d="M9.0281 0.108887L-0.0800781 27.9464H8.34547L14.5242 5.8757H15.407L21.586 27.9464H30.0119L20.904 0.108887H9.0281Z" fill="white"/>
<path d="M53.8635 8.06283H46.3609L46.0791 10.5685C44.7954 8.50028 42.5888 7.42627 39.8207 7.42627C36.8512 7.42627 34.5645 8.5795 32.9595 10.3693C31.515 11.96 30.2715 14.4657 30.2715 18.0051C30.2715 21.5448 31.5153 24.0505 32.9595 25.6399C34.5648 27.4308 36.8512 28.5829 39.8207 28.5829C44.0333 28.5829 45.5981 26.2375 46.0791 25.3615L46.3609 27.946H53.8635V8.06283ZM46.2801 17.8864C46.2801 18.8405 46.2001 20.272 45.4781 21.3861C44.7552 22.4993 43.7127 23.0168 42.3482 23.0168C41.024 23.0168 39.9406 22.4996 39.1781 21.3462C38.4562 20.2331 38.3761 18.9204 38.3761 17.8864C38.3761 16.8919 38.4565 15.5799 39.1781 14.4661C39.9406 13.313 41.024 12.7958 42.3482 12.7958C43.7124 12.7958 44.7552 13.313 45.4781 14.4265C46.1197 15.4199 46.2801 16.6531 46.2801 17.8864Z" fill="white"/>
<path d="M71.7372 17.8864C71.7372 19.8745 71.2561 20.8686 70.9754 21.3459C70.4936 22.1015 69.571 23.0164 67.8053 23.0164C66.4813 23.0164 65.3983 22.4993 64.6358 21.3459C63.9136 20.2327 63.8332 18.92 63.8332 17.8864C63.8332 16.8916 63.9136 15.5796 64.6358 14.4661C65.3983 13.3127 66.481 12.7955 67.8053 12.7955C69.5707 12.7955 70.4936 13.7101 70.9754 14.4661C71.2963 14.943 71.7372 15.9374 71.7372 17.8864ZM79.3209 8.06283H71.8581L71.5368 10.5685C70.2531 8.50028 68.0465 7.42627 65.2774 7.42627C62.3083 7.42627 60.0219 8.5795 58.4169 10.3693C56.9727 11.96 55.7285 14.4657 55.7285 18.0051C55.7285 21.5448 56.9727 24.0505 58.4169 25.6399C60.0621 27.4308 62.2687 28.5829 65.2774 28.5829C66.9627 28.5829 69.8514 28.1858 71.5368 25.3615V27.946C71.5368 28.6624 71.5707 30.7512 70.9352 31.5107C70.2076 32.3802 68.9684 32.5055 68.0863 32.5055H66.6823V37.6363H68.7687C71.5372 37.6363 74.3867 37.595 76.672 35.688C78.9594 33.7786 79.3209 30.2139 79.3209 27.9463V8.06283Z" fill="white"/>
<path d="M81.1855 18.005C81.1855 21.823 82.8706 24.4079 84.836 26.0389C86.7211 27.5904 89.3703 28.7424 93.1404 28.7424C96.9125 28.7424 99.56 27.5904 101.447 26.0389C103.412 24.4075 105.097 21.8227 105.097 18.005C105.097 14.1876 103.412 11.6023 101.447 9.97185C99.5596 8.42035 96.9125 7.26709 93.1404 7.26709C89.3699 7.26709 86.7208 8.42035 84.836 9.97185C82.8706 11.6026 81.1855 14.1873 81.1855 18.005ZM89.2895 17.8863C89.2895 16.534 89.4091 15.3008 89.9321 14.2668C90.7743 12.6364 92.2171 12.3185 93.1404 12.3185C94.0633 12.3185 95.5088 12.6364 96.351 14.2668C96.8716 15.3008 96.9932 16.534 96.9932 17.8863C96.9932 19.2781 96.8716 20.5509 96.351 21.545C95.5088 23.1756 94.0633 23.4933 93.1404 23.4933C92.2171 23.4933 90.7743 23.1753 89.9321 21.545C89.4095 20.5509 89.2895 19.2778 89.2895 17.8863Z" fill="white"/>
<path d="M106.322 14.5848H114.106V14.1078C114.106 13.5508 114.145 12.7556 114.826 12.1193C115.349 11.6418 115.95 11.5228 116.553 11.5228C116.953 11.5228 117.676 11.5629 118.198 11.9602C118.479 12.1985 118.841 12.5969 118.841 13.2727C118.841 14.028 118.438 14.5056 118.198 14.7045C117.676 15.1023 116.753 15.3404 114.948 15.7382C111.618 16.4938 110.214 17.0109 109.33 17.448C107.123 18.602 106.08 20.2327 106.161 22.579C106.241 24.5676 107.164 26.5162 109.892 27.7481C110.695 28.1062 112.58 28.8226 116.553 28.8226C119.041 28.8226 121.929 28.503 124.095 27.0729C126.664 25.3618 127.265 22.7776 127.426 21.2667H119.402V21.7436C119.402 22.5391 119.041 23.2153 118.599 23.6127C117.996 24.1698 117.276 24.2889 116.553 24.2889C115.872 24.2889 115.308 24.209 114.907 23.9307C114.307 23.5332 114.184 22.9366 114.184 22.4992C114.184 21.4652 114.787 21.1077 115.63 20.7891C116.553 20.4708 117.715 20.2719 119.561 19.7947C122.049 19.1185 123.534 18.6413 124.577 17.8464C125.78 16.9318 126.744 15.4199 126.664 13.3918C126.622 12.2387 126.222 9.89237 123.414 8.42066C121.487 7.42651 118.679 7.14843 116.553 7.18821C113.141 7.22766 111.215 7.94377 110.092 8.54056C107.565 9.89208 106.403 12.1985 106.322 14.5848Z" fill="white"/>
<path d="M152.08 8.06283H144.577L144.296 10.5685C143.012 8.50028 140.807 7.42627 138.038 7.42627C135.069 7.42627 132.781 8.5795 131.177 10.3693C129.731 11.96 128.488 14.4657 128.488 18.0051C128.488 21.5448 129.731 24.0505 131.177 25.6399C132.781 27.4308 135.069 28.5829 138.038 28.5829C142.25 28.5829 143.815 26.2375 144.296 25.3615L144.577 27.946H152.08V8.06283ZM144.496 17.8864C144.496 18.8405 144.416 20.272 143.695 21.3861C142.972 22.4993 141.93 23.0168 140.565 23.0168C139.241 23.0168 138.157 22.4996 137.396 21.3462C136.673 20.2331 136.593 18.9204 136.593 17.8864C136.593 16.8919 136.673 15.5799 137.396 14.4661C138.157 13.313 139.241 12.7958 140.565 12.7958C141.93 12.7958 142.973 13.313 143.695 14.4265C144.337 15.4199 144.496 16.6531 144.496 17.8864Z" fill="white"/>
</g>
<defs>
<clipPath id="clip0_623_3122">
<rect width="152" height="50" fill="white"/>
</clipPath>
</defs>
</svg>

<svg xmlns="http://www.w3.org/2000/svg" width="152" height="50" fill="none"><g clip-path="url(#a)"><path fill="#fff" fill-rule="evenodd" d="M87.39 34.005c4.43 0 8.023 3.56 8.023 7.955 0 4.392-3.593 7.952-8.023 7.952-4.431 0-8.025-3.56-8.025-7.952 0-4.395 3.594-7.955 8.025-7.955ZM106.262 34.005c4.431 0 8.024 3.56 8.024 7.955 0 4.392-3.593 7.952-8.024 7.952-4.431 0-8.024-3.56-8.024-7.952 0-4.395 3.593-7.955 8.024-7.955ZM125.134 34.027c4.434 0 8.025 3.562 8.025 7.954 0 4.391-3.591 7.953-8.025 7.953-4.431 0-8.023-3.562-8.023-7.953 0-4.392 3.592-7.954 8.023-7.954ZM144.011 34.005c4.43 0 8.023 3.56 8.023 7.955 0 4.392-3.593 7.952-8.023 7.952-4.432 0-8.025-3.56-8.025-7.952 0-4.395 3.593-7.955 8.025-7.955Z" clip-rule="evenodd"/><path fill="#221F20" d="M89.2 38.748h-3.625v6.708c0 .507-.316.76-.942.76-.63 0-.943-.253-.947-.763V38.06c0-.511.315-.766.953-.766h5.505c.636 0 .951.255.947.766v7.395c-.004.509-.32.761-.947.761-.63 0-.945-.252-.945-.76v-6.707ZM106.236 39.231h-.026l-1.23 3.38h2.506l-1.25-3.38Zm-3.214 7.036c-.584 0-.874-.209-.874-.625 0-.119.035-.28.107-.484l2.786-7.02c.116-.305.264-.542.453-.709.189-.165.455-.25.797-.25.343 0 .62.09.829.27.211.177.362.4.453.665l2.806 7.057c.041.11.062.231.062.358 0 .246-.1.432-.298.553a1.307 1.307 0 0 1-.7.185c-.468 0-.754-.168-.854-.504l-.689-1.867h-3.346l-.667 1.834c-.136.358-.426.538-.865.538ZM122.268 38.356c0-.517.359-.776 1.078-.776h2.499c.984 0 1.728.239 2.231.72.507.483.764 1.122.764 1.918 0 1.297-.59 2.16-1.766 2.59-.385.138-.82.205-1.316.2h-1.598v2.736c0 .503-.316.755-.945.755-.627 0-.943-.252-.947-.76v-7.383Zm4.746 1.95c0-.866-.468-1.304-1.4-1.313h-1.454v2.652h1.417c.442 0 .795-.11 1.054-.33.254-.22.383-.557.383-1.008ZM140.652 38.256c.005-.509.32-.764.949-.764.627 0 .943.3.943.896v3.286h.019l3.02-3.452c.422-.488.853-.73 1.297-.73.294 0 .505.059.633.175.127.117.19.257.19.423 0 .164-.072.328-.218.485l-3.021 3.241 3.213 3.48c.189.212.283.412.283.602a.564.564 0 0 1-.222.466c-.148.117-.381.178-.699.178a1.33 1.33 0 0 1-.838-.28 5.064 5.064 0 0 1-.751-.747l-2.886-3.306h-.02v3.573c0 .505-.316.76-.942.76-.629 0-.945-.302-.949-.904l-.001-7.382Z"/><path fill="#fff" d="M9.028.109-.08 27.946h8.425l6.18-22.07h.882l6.179 22.07h8.426L20.904.11H9.028ZM53.864 8.063H46.36l-.282 2.505c-1.284-2.068-3.49-3.142-6.258-3.142-2.97 0-5.256 1.153-6.861 2.943-1.445 1.591-2.689 4.097-2.689 7.636 0 3.54 1.244 6.046 2.688 7.635 1.606 1.79 3.892 2.943 6.862 2.943 4.212 0 5.777-2.345 6.258-3.221l.282 2.584h7.503V8.063Zm-7.584 9.823c0 .954-.08 2.386-.802 3.5-.723 1.113-1.765 1.63-3.13 1.63-1.324 0-2.407-.516-3.17-1.67-.722-1.113-.802-2.426-.802-3.46 0-.994.08-2.306.802-3.42.763-1.153 1.846-1.67 3.17-1.67 1.364 0 2.407.517 3.13 1.63.642.994.802 2.227.802 3.46ZM71.737 17.886c0 1.989-.48 2.983-.762 3.46-.481.756-1.404 1.67-3.17 1.67-1.324 0-2.407-.517-3.17-1.67-.721-1.113-.802-2.426-.802-3.46 0-.994.08-2.306.803-3.42.762-1.153 1.845-1.67 3.17-1.67 1.765 0 2.688.914 3.17 1.67.32.477.761 1.471.761 3.42Zm7.584-9.823h-7.463l-.321 2.505c-1.284-2.068-3.49-3.142-6.26-3.142-2.969 0-5.255 1.153-6.86 2.943-1.444 1.591-2.689 4.097-2.689 7.636 0 3.54 1.245 6.046 2.689 7.635 1.645 1.79 3.852 2.943 6.86 2.943 1.686 0 4.574-.397 6.26-3.221v2.584c0 .716.034 2.805-.602 3.565-.727.87-1.967.994-2.849.994h-1.404v5.131h2.087c2.768 0 5.618-.041 7.903-1.948 2.287-1.91 2.649-5.474 2.649-7.742V8.063ZM81.186 18.005c0 3.818 1.685 6.403 3.65 8.034 1.885 1.551 4.534 2.703 8.304 2.703 3.772 0 6.42-1.152 8.307-2.703 1.965-1.632 3.65-4.216 3.65-8.034 0-3.817-1.685-6.403-3.65-8.033-1.887-1.552-4.535-2.705-8.307-2.705-3.77 0-6.42 1.153-8.304 2.705-1.965 1.63-3.65 4.215-3.65 8.033Zm8.103-.119c0-1.352.12-2.585.643-3.62.842-1.63 2.285-1.947 3.208-1.947s2.369.317 3.211 1.948c.52 1.034.642 2.267.642 3.62 0 1.391-.121 2.664-.642 3.658-.842 1.63-2.288 1.948-3.21 1.948-.924 0-2.367-.318-3.209-1.948-.523-.994-.642-2.267-.642-3.659ZM106.322 14.585h7.784v-.477c0-.557.039-1.352.72-1.989.523-.477 1.124-.596 1.727-.596.4 0 1.123.04 1.645.437.281.238.643.637.643 1.313 0 .755-.403 1.233-.643 1.431-.522.398-1.445.636-3.25 1.034-3.33.756-4.734 1.273-5.618 1.71-2.207 1.154-3.25 2.785-3.169 5.131.08 1.989 1.003 3.937 3.731 5.17.803.357 2.688 1.074 6.661 1.074 2.488 0 5.376-.32 7.542-1.75 2.569-1.711 3.17-4.295 3.331-5.806h-8.024v.477c0 .795-.361 1.471-.803 1.869-.603.557-1.323.676-2.046.676-.681 0-1.245-.08-1.646-.358-.6-.398-.723-.994-.723-1.432 0-1.034.603-1.391 1.446-1.71.923-.318 2.085-.517 3.931-.994 2.488-.677 3.973-1.154 5.016-1.949 1.203-.914 2.167-2.426 2.087-4.454-.042-1.153-.442-3.5-3.25-4.971-1.927-.994-4.735-1.273-6.861-1.233-3.412.04-5.338.756-6.461 1.353-2.527 1.351-3.689 3.657-3.77 6.044ZM152.08 8.063h-7.503l-.281 2.505c-1.284-2.068-3.489-3.142-6.258-3.142-2.969 0-5.257 1.153-6.861 2.943-1.446 1.591-2.689 4.097-2.689 7.636 0 3.54 1.243 6.046 2.689 7.635 1.604 1.79 3.892 2.943 6.861 2.943 4.212 0 5.777-2.345 6.258-3.221l.281 2.584h7.503V8.063Zm-7.584 9.823c0 .954-.08 2.386-.801 3.5-.723 1.113-1.765 1.63-3.13 1.63-1.324 0-2.408-.516-3.169-1.67-.723-1.113-.803-2.426-.803-3.46 0-.994.08-2.306.803-3.42.761-1.153 1.845-1.67 3.169-1.67 1.365 0 2.408.517 3.13 1.63.642.994.801 2.227.801 3.46Z"/></g><defs><clipPath id="a"><path fill="#fff" d="M0 0h152v50H0z"/></clipPath></defs></svg>
